app/assets/images/liberapay-logo.svg

<svg fill="none" height="1067" viewBox="0 0 1067 1067" width="1067" xmlns="http://www.w3.org/2000/svg"><g fill="#1a171b"><path d="m345.575 796.579c-47.629 0-85-6.215-112.169-18.619-27.168-12.404-46.614-29.329-58.351-50.803-11.737-21.46-17.446-46.107-17.099-73.942.333-27.822 4.175-57.499 11.577-89.029l127.76-534.1662 155.915-24.14102-139.83 579.38122c-2.694 12.07-4.188 23.14-4.521 33.197-.347 10.056 1.507 18.952 5.535 26.661 4.028 7.723 10.896 13.925 20.619 18.606 9.723 4.709 23.301 7.723 40.746 9.056l-30.182 123.746"/><path d="m908.951 463.675c0 48.962-8.056 93.763-24.155 134.309-16.098 40.586-38.398 75.61-66.821 105.113-28.515 29.516-62.713 52.483-102.605 68.915-39.906 16.418-83.333 24.647-130.267 24.647-22.808 0-45.615-2.013-68.408-6.041l-45.268 182.07h-148.873l166.985-696.084c26.809-8.043 57.498-15.245 92.043-21.634 34.53-6.362 71.929-9.549 112.168-9.549 37.545 0 69.915 5.708 97.07 17.098 27.169 11.404 49.456 26.995 66.954 46.775 17.433 19.793 30.33 42.933 38.733 69.422 8.362 26.501 12.564 54.817 12.564 84.999m-365.155 206.212c11.391 2.694 25.475 4.027 42.24 4.027 26.155 0 49.963-4.854 71.423-14.591 21.46-9.709 39.732-23.301 54.83-40.746 15.085-17.432 26.808-38.372 35.211-62.873 8.376-24.474 12.577-51.456 12.577-80.972 0-28.822-6.388-53.323-19.112-73.436-12.751-20.113-34.878-30.183-66.394-30.183-21.474 0-41.587 2.014-60.353 6.042z"/></g></svg>

<svg width="1067" height="1067" viewBox="0 0 1067 1067" fill="none" xmlns="http://www.w3.org/2000/svg">
<path d="M345.575 796.579C297.946 796.579 260.575 790.364 233.406 777.96C206.238 765.556 186.792 748.631 175.055 727.157C163.318 705.697 157.609 681.05 157.956 653.215C158.289 625.393 162.131 595.716 169.533 564.186L297.293 30.0198L453.208 5.87878L313.378 585.26C310.684 597.33 309.19 608.4 308.857 618.457C308.51 628.513 310.364 637.409 314.392 645.118C318.42 652.841 325.288 659.043 335.011 663.724C344.734 668.433 358.312 671.447 375.757 672.78L345.575 796.526" fill="#1A171B"/>
<path d="M908.951 463.675C908.951 512.637 900.895 557.438 884.796 597.984C868.698 638.57 846.398 673.594 817.975 703.097C789.46 732.613 755.262 755.58 715.37 772.012C675.464 788.43 632.037 796.659 585.103 796.659C562.295 796.659 539.488 794.646 516.695 790.618L471.427 972.688H322.554L489.539 276.604C516.348 268.561 547.037 261.359 581.582 254.97C616.112 248.608 653.511 245.421 693.75 245.421C731.295 245.421 763.665 251.129 790.82 262.519C817.989 273.923 840.276 289.514 857.774 309.294C875.207 329.087 888.104 352.227 896.507 378.716C904.869 405.217 909.071 433.533 909.071 463.715M543.916 669.927C555.307 672.621 569.391 673.954 586.156 673.954C612.311 673.954 636.119 669.1 657.579 659.363C679.039 649.654 697.311 636.062 712.409 618.617C727.494 601.185 739.217 580.245 747.62 555.744C755.996 531.27 760.197 504.288 760.197 474.772C760.197 445.95 753.809 421.449 741.085 401.336C728.334 381.223 706.207 371.153 674.691 371.153C653.217 371.153 633.104 373.167 614.338 377.195L543.916 669.927Z" fill="#1A171B"/>
</svg>
